packages/icons/svg/Outline/car-2.svg

<svg fill="none" height="24" viewBox="0 0 24 24" width="24" xmlns="http://www.w3.org/2000/svg"><path clip-rule="evenodd" d="m20.3333 16.3333c0 .4907-.3982.8889-.8889.8889s-.8889-.3982-.8889-.8889c0-.4906.3982-.8889.8889-.8889s.8889.3983.8889.8889zm-6.2222-2.6666h-7.11115l.01422-8.88892h9.76353l-.0142 8.88892zm-4.44449 2.6666c0 .4907-.39822.8889-.88889.8889-.49066 0-.88889-.3982-.88889-.8889 0-.4906.39823-.8889.88889-.8889.49067 0 .88889.3983.88889.8889zm11.55559-4.9066v2.24h-2.6667v-4.37243zm1.4444-1.1209-4.1111-3.28891v-2.23911c0-.98045-.7227-1.77778-1.6116-1.77778h-10.11107c-.888 0-1.61066.79733-1.61066 1.77778v8.88892c0 .776.456 1.4302 1.08533 1.6729-.12444.3075-.19644.6417-.19644.9937 0 1.4703 1.19644 2.6667 2.66666 2.6667 1.47018 0 2.66668-1.1964 2.66668-2.6667 0-.3137-.064-.6097-.1645-.8889h2.8312 2.8311c-.1005.2792-.1645.5752-.1645.8889 0 1.4703 1.1965 2.6667 2.6667 2.6667s2.6667-1.1964 2.6667-2.6667c0-.3137-.064-.6097-.1645-.8889h.1645c.4915 0 .8888-.3973.8888-.8888v-3.5556c0-.2702-.1226-.5253-.3333-.6942zm.3334 9.6942h-22c-.55 0-1 .45-1 1s.45 1 1 1h22c.55 0 1-.45 1-1s-.45-1-1-1zm-22-3h2c.55 0 1 .45 1 1s-.45 1-1 1h-2c-.55 0-1-.45-1-1s.45-1 1-1z" fill="#6b7280" fill-rule="evenodd"/></svg>

<svg width="24" height="24" viewBox="0 0 24 24" fill="none" xmlns="http://www.w3.org/2000/svg">
<path fill-rule="evenodd" clip-rule="evenodd" d="M20.3333 16.3333C20.3333 16.824 19.9351 17.2222 19.4444 17.2222C18.9537 17.2222 18.5555 16.824 18.5555 16.3333C18.5555 15.8427 18.9537 15.4444 19.4444 15.4444C19.9351 15.4444 20.3333 15.8427 20.3333 16.3333ZM14.1111 13.6667H6.99995L7.01417 4.77778H16.7777L16.7635 13.6667H14.1111ZM9.66661 16.3333C9.66661 16.824 9.26839 17.2222 8.77772 17.2222C8.28706 17.2222 7.88883 16.824 7.88883 16.3333C7.88883 15.8427 8.28706 15.4444 8.77772 15.4444C9.26839 15.4444 9.66661 15.8427 9.66661 16.3333ZM21.2222 11.4267V13.6667H18.5555V9.29427L21.2222 11.4267ZM22.6666 10.3058L18.5555 7.01689V4.77778C18.5555 3.79733 17.8328 3 16.9439 3H6.83283C5.94483 3 5.22217 3.79733 5.22217 4.77778V13.6667C5.22217 14.4427 5.67817 15.0969 6.3075 15.3396C6.18306 15.6471 6.11106 15.9813 6.11106 16.3333C6.11106 17.8036 7.3075 19 8.77772 19C10.2479 19 11.4444 17.8036 11.4444 16.3333C11.4444 16.0196 11.3804 15.7236 11.2799 15.4444H14.1111H16.9422C16.8417 15.7236 16.7777 16.0196 16.7777 16.3333C16.7777 17.8036 17.9742 19 19.4444 19C20.9146 19 22.1111 17.8036 22.1111 16.3333C22.1111 16.0196 22.0471 15.7236 21.9466 15.4444H22.1111C22.6026 15.4444 22.9999 15.0471 22.9999 14.5556V11C22.9999 10.7298 22.8773 10.4747 22.6666 10.3058ZM23 20H1C0.45 20 0 20.45 0 21C0 21.55 0.45 22 1 22H23C23.55 22 24 21.55 24 21C24 20.45 23.55 20 23 20ZM1 17H3C3.55 17 4 17.45 4 18C4 18.55 3.55 19 3 19H1C0.45 19 0 18.55 0 18C0 17.45 0.45 17 1 17Z" fill="#000000"/>
</svg>
